brandFactory_export/1.Light/ADN_1Light.svg

<?xml version="1.0" encoding="UTF-8"?>
<svg width="24px" height="24px" viewBox="0 0 24 24" version="1.1" xmlns="http://www.w3.org/2000/svg" xmlns:xlink="http://www.w3.org/1999/xlink">
    <title>1.Light/ADN_1Light</title>
    <g id="Symbols" stroke="none" stroke-width="1" fill="none" fill-rule="evenodd">
        <g id="1.Light/ADN_1Light" fill="#5CB615" fill-rule="nonzero">
            <path d="M10.112605,8.27226891 C10.8016807,7.73109244 11.6084034,7.24369748 12.4420168,6.75966387 C13.2789916,7.24705882 14.0857143,7.73445378 14.7714286,8.27226891 L10.112605,8.27226891 Z M9.05378151,9.28739496 L15.8336134,9.28739496 C16.3109244,9.86890756 16.6235294,10.5344538 16.7210084,11.3210084 L8.16638655,11.3210084 C8.26722689,10.5378151 8.57647059,9.86890756 9.05378151,9.28739496 Z M14.7344538,15.3848739 C14.0554622,15.912605 13.2621849,16.3865546 12.4420168,16.8638655 C11.6252101,16.3865546 10.8319328,15.9092437 10.1529412,15.3848739 L14.7344538,15.3848739 L14.7344538,15.3848739 Z M9.08403361,14.3697479 C8.59663866,13.7882353 8.27731092,13.1226891 8.17310924,12.3394958 L16.7142857,12.3394958 C16.610084,13.1226891 16.287395,13.7915966 15.8033613,14.3697479 L9.08403361,14.3697479 Z M17.8571429,11.8117647 C17.8571429,9.00504202 15.7327731,7.50252101 13.4672269,6.16134454 C15.7327731,4.82016807 17.8571429,3.31428571 17.8571429,0.51092437 C17.8571429,0.231932773 17.6151261,0.00336134454 17.3159664,0.00336134454 C17.0168067,0.00336134454 16.7747899,0.231932773 16.7747899,0.51092437 C16.7747899,2.9512605 14.707563,4.24537815 12.4453782,5.56302521 C10.1831933,4.24537815 8.11596639,2.9512605 8.11596639,0.51092437 C8.11596639,0.231932773 7.87394958,0.00336134454 7.57478992,0.00336134454 C7.27563025,0.00336134454 7.03361345,0.231932773 7.03361345,0.51092437 C7.03361345,3.31764706 9.15798319,4.82016807 11.4268908,6.16134454 C9.16134454,7.50252101 7.03361345,9.00840336 7.03361345,11.8117647 C7.03361345,13.1529412 7.53445378,14.1848739 8.28739496,15.0554622 C8.32773109,15.1529412 8.40168067,15.2336134 8.49243697,15.2907563 C9.29579832,16.1344538 10.3378151,16.8201681 11.4235294,17.4655462 C9.15798319,18.8067227 7.0302521,20.312605 7.0302521,23.1159664 C7.0302521,23.394958 7.27226891,23.6235294 7.57142857,23.6235294 C7.87058824,23.6235294 8.11260504,23.394958 8.11260504,23.1159664 C8.11260504,20.6756303 10.1798319,19.3815126 12.4420168,18.0638655 C14.707563,19.3815126 16.7714286,20.6756303 16.7714286,23.1159664 C16.7714286,23.394958 17.0134454,23.6235294 17.312605,23.6235294 C17.6117647,23.6235294 17.8537815,23.394958 17.8537815,23.1159664 C17.8537815,20.3092437 15.7294118,18.8067227 13.4638655,17.4655462 C15.7327731,16.1210084 17.8571429,14.6184874 17.8571429,11.8117647 Z" id="ADN_1Light"></path>
        </g>
    </g>
</svg>

<svg width="24" height="24" viewBox="0 0 24 24" xmlns="http://www.w3.org/2000/svg"><path d="M10.113 8.272c.689-.54 1.495-1.028 2.329-1.512.837.487 1.644.974 2.33 1.512h-4.66zm-1.06 1.015h6.78c.478.582.79 1.247.888 2.034H8.166c.101-.783.41-1.452.888-2.034zm5.681 6.098c-.679.528-1.472 1.002-2.292 1.479-.817-.477-1.61-.955-2.29-1.48h4.582zm-5.65-1.015a3.9 3.9 0 01-.91-2.03h8.54a3.915 3.915 0 01-.91 2.03h-6.72zm8.773-2.558c0-2.807-2.124-4.31-4.39-5.65 2.266-1.342 4.39-2.848 4.39-5.651 0-.28-.242-.508-.541-.508-.3 0-.541.229-.541.508 0 2.44-2.067 3.734-4.33 5.052C10.183 4.245 8.116 2.951 8.116.511c0-.28-.242-.508-.541-.508-.3 0-.541.229-.541.508 0 2.807 2.124 4.31 4.393 5.65-2.266 1.342-4.393 2.847-4.393 5.65 0 1.342.5 2.374 1.253 3.244.04.098.115.179.205.236.804.843 1.846 1.53 2.932 2.175-2.266 1.34-4.394 2.847-4.394 5.65 0 .279.242.508.541.508.3 0 .542-.229.542-.508 0-2.44 2.067-3.734 4.329-5.052 2.266 1.318 4.33 2.612 4.33 5.052 0 .279.241.508.54.508.3 0 .542-.229.542-.508 0-2.807-2.125-4.31-4.39-5.65 2.269-1.345 4.393-2.848 4.393-5.654z" fill="#5CB615" fill-rule="nonzero"/></svg>
